icons/svg/icons8/duck.svg

<svg width="26" height="26" viewBox="0 0 26 26" fill="none" xmlns="http://www.w3.org/2000/svg">
<path d="M23.9838 3.059C22.8728 3.337 21.3138 3.348 20.3608 2.693C19.4078 2.038 19.0608 0.154999 16.3998 0.154999C14.2998 0.154999 13.1088 1.509 13.1088 3.516C13.1088 5.704 14.6648 6.459 14.6648 9.319C14.6648 13.34 8.6648 16.895 3.4758 16.446C2.4038 16.352 2.1728 16.918 2.8468 17.479C1.6118 17.052 -0.118203 18.041 3.8678 19.879C6.1418 20.928 9.5538 22.174 13.6438 22.174C20.4818 22.174 21.9268 18.448 21.9268 16.067C21.9268 12.443 18.1738 10.412 18.1738 7.624C18.1738 5.751 19.5888 6.248 21.2968 5.829C23.5448 5.276 24.0458 4.546 24.4108 4.078C24.8218 3.553 24.8808 2.835 23.9838 3.059ZM17.9378 4.13C17.5448 4.13 17.2288 3.814 17.2288 3.422C17.2288 3.03 17.5448 2.713 17.9378 2.713C18.3288 2.713 18.6468 3.031 18.6468 3.422C18.6468 3.813 18.3278 4.13 17.9378 4.13Z" fill="#333333"/>
<path d="M16.5671 24.676C16.5671 24.483 15.9061 24.451 15.6631 24.246C15.3921 24.017 15.9321 23.94 15.8891 23.726C15.8651 23.601 13.8781 23.489 12.2441 23.599C12.2441 23.599 11.7131 22.995 12.3121 21.902C12.9111 20.81 11.9171 21.382 11.5131 21.382C11.1091 21.382 9.97908 20.207 10.5861 21.726C11.3611 23.664 10.0591 23.812 10.0591 24.517C10.0591 25.848 15.9171 26.121 16.0251 25.669C16.0721 25.467 15.5331 25.36 15.6661 25.216C15.9051 24.954 16.5671 24.842 16.5671 24.676Z" fill="#333333"/>
</svg>

<?xml version="1.0" encoding="utf-8"?>
<!-- Generator: Adobe Illustrator 16.0.0, SVG Export Plug-In . SVG Version: 6.00 Build 0)  -->
<!DOCTYPE svg PUBLIC "-//W3C//DTD SVG 1.1//EN" "http://www.w3.org/Graphics/SVG/1.1/DTD/svg11.dtd">
<svg version="1.1" id="Layer_1" xmlns="http://www.w3.org/2000/svg" xmlns:xlink="http://www.w3.org/1999/xlink" x="0px" y="0px"
	 width="26px" height="26px" viewBox="0 0 26 26" enable-background="new 0 0 26 26" xml:space="preserve">
<rect fill="none" width="26" height="26"/>
<path fill="#333333" d="M23.984,3.059c-1.111,0.278-2.67,0.289-3.623-0.366s-1.3-2.538-3.961-2.538c-2.1,0-3.291,1.354-3.291,3.361
	c0,2.188,1.556,2.943,1.556,5.803c0,4.021-6,7.576-11.189,7.127c-1.072-0.094-1.303,0.472-0.629,1.033
	c-1.235-0.427-2.965,0.562,1.021,2.4c2.274,1.049,5.686,2.295,9.776,2.295c6.838,0,8.283-3.726,8.283-6.107
	c0-3.624-3.753-5.655-3.753-8.443c0-1.873,1.415-1.376,3.123-1.795c2.248-0.553,2.749-1.283,3.114-1.751
	C24.822,3.553,24.881,2.835,23.984,3.059z M17.938,4.13c-0.393,0-0.709-0.316-0.709-0.708s0.316-0.709,0.709-0.709
	c0.391,0,0.709,0.318,0.709,0.709S18.328,4.13,17.938,4.13z"/>
<path fill="#333333" d="M16.567,24.676c0-0.193-0.661-0.225-0.904-0.43c-0.271-0.229,0.269-0.306,0.226-0.52
	c-0.024-0.125-2.011-0.237-3.645-0.127c0,0-0.531-0.604,0.068-1.697c0.599-1.092-0.395-0.52-0.799-0.52s-1.534-1.175-0.927,0.344
	c0.775,1.938-0.527,2.086-0.527,2.791c0,1.331,5.858,1.604,5.966,1.152c0.047-0.202-0.492-0.309-0.359-0.453
	C15.905,24.954,16.567,24.842,16.567,24.676z"/>
</svg>
